X:109
T:Blatchley's Banter
M:2/4
L:1/8
K:Amix
A/G/|E/AB/ Ac/d/|e/ec/ dc/d/|e/aa/ ga/g/|e/aa/ ga/g/|e/d/b/(b/ A)c/d/|
e/ec/ dc/d/|e/ab/ g/e/d/B/|A3::c/d/|e/ab/ ag/a/|b/ab/ ae/f/|g/a/f/d/ e/aa/|
g/a/f/d/ e/c/B/A/|A/e/a/b/ ag/a/|b/ab/ ae/f/|g/a/f/d/ e/f/d/B/|A3:|
